X: 6
T:Bentonâ€™s Dream
M:4/4
L:1/8
C:Benton Flippen
R:Reel
N:Transcribed by Bruce Thomson from the playing of Scott Mathis
K:Am
|:a2 abage^f|g2 gag^fed|e2e2e2e2|edc2A2 AB|
[E2c2] cdcBAc|BABcBAGE|(A4A)GEG|[1AGABcdeg:|[2[A8E8]|
|:[G,2G2][G,G][G,G][G,2G2][G,G][G,G]|
[G,2G2][G,G][G,G][G,2G2][G,G][G,G]|
[G,2G2][G,G][G,G][G,2G2][G,G][G,G]|
[G,2G2][G,G][G,G][G,2G2][G,G][G,G]|
A8|e2e2edc2|(A4A)GEG|A8:|

